ligands/tetradentate/phthalocyanine.svg

<svg height="256" viewBox="0 0 256 256" width="256" xmlns="http://www.w3.org/2000/svg"><path d="m0 0h256v256h-256z" fill="#fff"/><ellipse cx="127.5" cy="128.4" fill="#ff7f7f" fill-rule="evenodd" rx="7.2" ry="7.2" stroke="#ff7f7f"/><g fill="none" stroke="#000" stroke-width="2"><path d="m139.9 201h-24.2"/><path d="m137.7 204.7h-19.8"/><path d="m115.7 201-7.6-23"/><path d="m108.1 178-17.7-5.9"/><path d="m107.5 173.9-15.9-5.3"/><path d="m83.5 165.2-5.9-17.7"/><path d="m77.6 147.5 9.2-12.6"/><path d="m88.2 122.6-10.6-14.5"/><path d="m77.6 108.1-23 7.6"/><path d="m76.1 112.6-17.7 5.8"/><path d="m54.6 115.7v24.2"/><path d="m54.6 139.9-20.9 12.1"/><path d="m33.7 152-20.9-12.1"/><path d="m33.7 147.6-17.1-9.9"/><path d="m12.8 139.9v-24.2"/><path d="m12.8 115.7 20.9-12.1"/><path d="m16.6 117.9 17.1-9.9"/><path d="m77.6 108.1 4.9-14.8"/><path d="m90.4 83.5 17.7-5.9"/><path d="m91.6 87 15.9-5.3"/><path d="m108.1 77.6 14.5 10.6"/><path d="m133 88.2 14.5-10.6"/><path d="m135.2 91.2 12.9-9.5"/><path d="m147.5 77.6 17.7 5.9"/><path d="m173.1 93.3 4.9 14.8"/><path d="m169.5 94.5 4.4 13"/><path d="m178 108.1-10.6 14.5"/><path d="m168.8 134.9 9.2 12.6"/><path d="m178 147.5-5.9 17.7"/><path d="m173.9 148.1-5.3 15.9"/><path d="m165.2 172.1-17.7 5.9"/><path d="m147.5 178-14.5-10.6"/><path d="m148.1 173.9-12.9-9.5"/><path d="m178 147.5 23-7.6"/><path d="m201 139.9v-24.2"/><path d="m204.7 137.7v-19.8"/><path d="m201 115.7 20.9-12.1"/><path d="m221.9 103.6 20.9 12.1"/><path d="m221.9 108 17.1 9.9"/><path d="m242.8 115.7v24.2"/><path d="m242.8 139.9-20.9 12.1"/><path d="m239 137.7-17.1 9.9"/><path d="m147.5 77.6-7.6-23"/><path d="m139.9 54.6h-24.2"/><path d="m137.7 50.9h-19.8"/><path d="m115.7 54.6-12.1-20.9"/><path d="m103.6 33.7 12.1-20.9"/><path d="m108 33.7 9.9-17.1"/><path d="m115.7 12.8h24.2"/><path d="m139.9 12.8 12.1 20.9"/><path d="m137.7 16.6 9.9 17.1"/><path d="m115.7 201-12.1 20.9"/><path d="m103.6 221.9 12.1 20.9"/><path d="m108 221.9 9.9 17.1"/><path d="m115.7 242.8h24.2"/><path d="m139.9 242.8 12.1-20.9"/><path d="m137.7 239 9.9-17.1"/><path d="m147.5 178-7.6 23"/><path d="m221.9 152-20.9-12.1"/><path d="m152 33.7-12.1 20.9"/><path d="m152 221.9-12.1-20.9"/><path d="m122.6 167.4-14.5 10.6"/><path d="m54.6 139.9 23 7.6"/><path d="m58.4 137.2 17.7 5.8"/><path d="m115.7 54.6-7.6 23"/><path d="m33.7 103.6 20.9 12.1"/><path d="m201 115.7-23-7.6"/><path d="m127.8 158.5-.2-22"/><path d="m97.1 127.9 25.2.4"/><path d="m127.7 100-.2 23.2"/><path d="m158.5 127.9-25.8.4"/><path d="m34.8 151.4-1.1.6-1-.6" stroke-miterlimit="10"/><path d="m13.8 140.5-1-.6v-1.2" stroke-miterlimit="10"/><path d="m12.8 116.9v-1.2l1-.6" stroke-miterlimit="10"/><path d="m32.7 104.2 1-.6 1.1.6" stroke-miterlimit="10"/><path d="m220.8 104.2 1.1-.6 1 .6" stroke-miterlimit="10"/><path d="m241.8 115.1 1 .6v1.2" stroke-miterlimit="10"/><path d="m242.8 138.7v1.2l-1 .6" stroke-miterlimit="10"/><path d="m222.9 151.4-1 .6-1.1-.6" stroke-miterlimit="10"/><path d="m104.2 34.8-.6-1.1.6-1" stroke-miterlimit="10"/><path d="m115.1 13.8.6-1h1.2" stroke-miterlimit="10"/><path d="m138.7 12.8h1.2l.6 1" stroke-miterlimit="10"/><path d="m151.4 32.7.6 1-.6 1.1" stroke-miterlimit="10"/><path d="m104.2 220.8-.6 1.1.6 1" stroke-miterlimit="10"/><path d="m115.1 241.8.6 1h1.2" stroke-miterlimit="10"/><path d="m138.7 242.8h1.2l.6-1" stroke-miterlimit="10"/><path d="m151.4 222.9.6-1-.6-1.1" stroke-miterlimit="10"/></g><text font-family="sans-serif" font-size="14" x="80.8" y="177.7">N</text><text font-family="sans-serif" font-size="14" x="87.6" y="135">N</text><text font-family="sans-serif" font-size="14" x="80.8" y="92.4">N</text><text font-family="sans-serif" font-size="14" x="123.5" y="99.2">N</text><text font-family="sans-serif" font-size="14" x="166.1" y="92.4">N</text><text font-family="sans-serif" font-size="14" x="159.3" y="135">N</text><text font-family="sans-serif" font-size="14" x="166.1" y="177.7">N</text><text font-family="sans-serif" font-size="14" x="123.5" y="170.9">N</text><text x="123.2" y="135.6"/></svg>

<?xml version='1.0' encoding='iso-8859-1'?>
<svg version='1.1' baseProfile='full'
              xmlns='http://www.w3.org/2000/svg'
                      xmlns:rdkit='http://www.rdkit.org/xml'
                      xmlns:xlink='http://www.w3.org/1999/xlink'
                  xml:space='preserve'
width='256px' height='256px' viewBox='0 0 256 256'>
<!-- END OF HEADER -->
<rect style='opacity:1.0;fill:#FFFFFF;stroke:none' width='256.0' height='256.0' x='0.0' y='0.0'> </rect>
<ellipse cx='127.5' cy='128.4' rx='7.2' ry='7.2' class='atom-24'  style='fill:#FF7F7F;fill-rule:evenodd;stroke:#FF7F7F;stroke-width:1.0px;stroke-linecap:butt;stroke-linejoin:miter;stroke-opacity:1' />
<path class='bond-0 atom-0 atom-1' d='M 139.9,201.0 L 115.7,201.0' style='fill:none;fill-rule:evenodd;stroke:#000000;stroke-width:2.0px;stroke-linecap:butt;stroke-linejoin:miter;stroke-opacity:1' />
<path class='bond-0 atom-0 atom-1' d='M 137.7,204.7 L 117.9,204.7' style='fill:none;fill-rule:evenodd;stroke:#000000;stroke-width:2.0px;stroke-linecap:butt;stroke-linejoin:miter;stroke-opacity:1' />
<path class='bond-1 atom-1 atom-2' d='M 115.7,201.0 L 108.1,178.0' style='fill:none;fill-rule:evenodd;stroke:#000000;stroke-width:2.0px;stroke-linecap:butt;stroke-linejoin:miter;stroke-opacity:1' />
<path class='bond-2 atom-2 atom-3' d='M 108.1,178.0 L 90.4,172.1' style='fill:none;fill-rule:evenodd;stroke:#000000;stroke-width:2.0px;stroke-linecap:butt;stroke-linejoin:miter;stroke-opacity:1' />
<path class='bond-2 atom-2 atom-3' d='M 107.5,173.9 L 91.6,168.6' style='fill:none;fill-rule:evenodd;stroke:#000000;stroke-width:2.0px;stroke-linecap:butt;stroke-linejoin:miter;stroke-opacity:1' />
<path class='bond-3 atom-3 atom-4' d='M 83.5,165.2 L 77.6,147.5' style='fill:none;fill-rule:evenodd;stroke:#000000;stroke-width:2.0px;stroke-linecap:butt;stroke-linejoin:miter;stroke-opacity:1' />
<path class='bond-4 atom-4 atom-5' d='M 77.6,147.5 L 86.8,134.9' style='fill:none;fill-rule:evenodd;stroke:#000000;stroke-width:2.0px;stroke-linecap:butt;stroke-linejoin:miter;stroke-opacity:1' />
<path class='bond-5 atom-5 atom-6' d='M 88.2,122.6 L 77.6,108.1' style='fill:none;fill-rule:evenodd;stroke:#000000;stroke-width:2.0px;stroke-linecap:butt;stroke-linejoin:miter;stroke-opacity:1' />
<path class='bond-6 atom-6 atom-7' d='M 77.6,108.1 L 54.6,115.7' style='fill:none;fill-rule:evenodd;stroke:#000000;stroke-width:2.0px;stroke-linecap:butt;stroke-linejoin:miter;stroke-opacity:1' />
<path class='bond-6 atom-6 atom-7' d='M 76.1,112.6 L 58.4,118.4' style='fill:none;fill-rule:evenodd;stroke:#000000;stroke-width:2.0px;stroke-linecap:butt;stroke-linejoin:miter;stroke-opacity:1' />
<path class='bond-7 atom-7 atom-8' d='M 54.6,115.7 L 54.6,139.9' style='fill:none;fill-rule:evenodd;stroke:#000000;stroke-width:2.0px;stroke-linecap:butt;stroke-linejoin:miter;stroke-opacity:1' />
<path class='bond-8 atom-8 atom-9' d='M 54.6,139.9 L 33.7,152.0' style='fill:none;fill-rule:evenodd;stroke:#000000;stroke-width:2.0px;stroke-linecap:butt;stroke-linejoin:miter;stroke-opacity:1' />
<path class='bond-9 atom-9 atom-10' d='M 33.7,152.0 L 12.8,139.9' style='fill:none;fill-rule:evenodd;stroke:#000000;stroke-width:2.0px;stroke-linecap:butt;stroke-linejoin:miter;stroke-opacity:1' />
<path class='bond-9 atom-9 atom-10' d='M 33.7,147.6 L 16.6,137.7' style='fill:none;fill-rule:evenodd;stroke:#000000;stroke-width:2.0px;stroke-linecap:butt;stroke-linejoin:miter;stroke-opacity:1' />
<path class='bond-10 atom-10 atom-11' d='M 12.8,139.9 L 12.8,115.7' style='fill:none;fill-rule:evenodd;stroke:#000000;stroke-width:2.0px;stroke-linecap:butt;stroke-linejoin:miter;stroke-opacity:1' />
<path class='bond-11 atom-11 atom-12' d='M 12.8,115.7 L 33.7,103.6' style='fill:none;fill-rule:evenodd;stroke:#000000;stroke-width:2.0px;stroke-linecap:butt;stroke-linejoin:miter;stroke-opacity:1' />
<path class='bond-11 atom-11 atom-12' d='M 16.6,117.9 L 33.7,108.0' style='fill:none;fill-rule:evenodd;stroke:#000000;stroke-width:2.0px;stroke-linecap:butt;stroke-linejoin:miter;stroke-opacity:1' />
<path class='bond-12 atom-6 atom-13' d='M 77.6,108.1 L 82.5,93.3' style='fill:none;fill-rule:evenodd;stroke:#000000;stroke-width:2.0px;stroke-linecap:butt;stroke-linejoin:miter;stroke-opacity:1' />
<path class='bond-13 atom-13 atom-14' d='M 90.4,83.5 L 108.1,77.6' style='fill:none;fill-rule:evenodd;stroke:#000000;stroke-width:2.0px;stroke-linecap:butt;stroke-linejoin:miter;stroke-opacity:1' />
<path class='bond-13 atom-13 atom-14' d='M 91.6,87.0 L 107.5,81.7' style='fill:none;fill-rule:evenodd;stroke:#000000;stroke-width:2.0px;stroke-linecap:butt;stroke-linejoin:miter;stroke-opacity:1' />
<path class='bond-14 atom-14 atom-15' d='M 108.1,77.6 L 122.6,88.2' style='fill:none;fill-rule:evenodd;stroke:#000000;stroke-width:2.0px;stroke-linecap:butt;stroke-linejoin:miter;stroke-opacity:1' />
<path class='bond-15 atom-15 atom-16' d='M 133.0,88.2 L 147.5,77.6' style='fill:none;fill-rule:evenodd;stroke:#000000;stroke-width:2.0px;stroke-linecap:butt;stroke-linejoin:miter;stroke-opacity:1' />
<path class='bond-15 atom-15 atom-16' d='M 135.2,91.2 L 148.1,81.7' style='fill:none;fill-rule:evenodd;stroke:#000000;stroke-width:2.0px;stroke-linecap:butt;stroke-linejoin:miter;stroke-opacity:1' />
<path class='bond-16 atom-16 atom-17' d='M 147.5,77.6 L 165.2,83.5' style='fill:none;fill-rule:evenodd;stroke:#000000;stroke-width:2.0px;stroke-linecap:butt;stroke-linejoin:miter;stroke-opacity:1' />
<path class='bond-17 atom-17 atom-18' d='M 173.1,93.3 L 178.0,108.1' style='fill:none;fill-rule:evenodd;stroke:#000000;stroke-width:2.0px;stroke-linecap:butt;stroke-linejoin:miter;stroke-opacity:1' />
<path class='bond-17 atom-17 atom-18' d='M 169.5,94.5 L 173.9,107.5' style='fill:none;fill-rule:evenodd;stroke:#000000;stroke-width:2.0px;stroke-linecap:butt;stroke-linejoin:miter;stroke-opacity:1' />
<path class='bond-18 atom-18 atom-19' d='M 178.0,108.1 L 167.4,122.6' style='fill:none;fill-rule:evenodd;stroke:#000000;stroke-width:2.0px;stroke-linecap:butt;stroke-linejoin:miter;stroke-opacity:1' />
<path class='bond-19 atom-19 atom-20' d='M 168.8,134.9 L 178.0,147.5' style='fill:none;fill-rule:evenodd;stroke:#000000;stroke-width:2.0px;stroke-linecap:butt;stroke-linejoin:miter;stroke-opacity:1' />
<path class='bond-20 atom-20 atom-21' d='M 178.0,147.5 L 172.1,165.2' style='fill:none;fill-rule:evenodd;stroke:#000000;stroke-width:2.0px;stroke-linecap:butt;stroke-linejoin:miter;stroke-opacity:1' />
<path class='bond-20 atom-20 atom-21' d='M 173.9,148.1 L 168.6,164.0' style='fill:none;fill-rule:evenodd;stroke:#000000;stroke-width:2.0px;stroke-linecap:butt;stroke-linejoin:miter;stroke-opacity:1' />
<path class='bond-21 atom-21 atom-22' d='M 165.2,172.1 L 147.5,178.0' style='fill:none;fill-rule:evenodd;stroke:#000000;stroke-width:2.0px;stroke-linecap:butt;stroke-linejoin:miter;stroke-opacity:1' />
<path class='bond-22 atom-22 atom-23' d='M 147.5,178.0 L 133.0,167.4' style='fill:none;fill-rule:evenodd;stroke:#000000;stroke-width:2.0px;stroke-linecap:butt;stroke-linejoin:miter;stroke-opacity:1' />
<path class='bond-22 atom-22 atom-23' d='M 148.1,173.9 L 135.2,164.4' style='fill:none;fill-rule:evenodd;stroke:#000000;stroke-width:2.0px;stroke-linecap:butt;stroke-linejoin:miter;stroke-opacity:1' />
<path class='bond-23 atom-20 atom-25' d='M 178.0,147.5 L 201.0,139.9' style='fill:none;fill-rule:evenodd;stroke:#000000;stroke-width:2.0px;stroke-linecap:butt;stroke-linejoin:miter;stroke-opacity:1' />
<path class='bond-24 atom-25 atom-26' d='M 201.0,139.9 L 201.0,115.7' style='fill:none;fill-rule:evenodd;stroke:#000000;stroke-width:2.0px;stroke-linecap:butt;stroke-linejoin:miter;stroke-opacity:1' />
<path class='bond-24 atom-25 atom-26' d='M 204.7,137.7 L 204.7,117.9' style='fill:none;fill-rule:evenodd;stroke:#000000;stroke-width:2.0px;stroke-linecap:butt;stroke-linejoin:miter;stroke-opacity:1' />
<path class='bond-25 atom-26 atom-27' d='M 201.0,115.7 L 221.9,103.6' style='fill:none;fill-rule:evenodd;stroke:#000000;stroke-width:2.0px;stroke-linecap:butt;stroke-linejoin:miter;stroke-opacity:1' />
<path class='bond-26 atom-27 atom-28' d='M 221.9,103.6 L 242.8,115.7' style='fill:none;fill-rule:evenodd;stroke:#000000;stroke-width:2.0px;stroke-linecap:butt;stroke-linejoin:miter;stroke-opacity:1' />
<path class='bond-26 atom-27 atom-28' d='M 221.9,108.0 L 239.0,117.9' style='fill:none;fill-rule:evenodd;stroke:#000000;stroke-width:2.0px;stroke-linecap:butt;stroke-linejoin:miter;stroke-opacity:1' />
<path class='bond-27 atom-28 atom-29' d='M 242.8,115.7 L 242.8,139.9' style='fill:none;fill-rule:evenodd;stroke:#000000;stroke-width:2.0px;stroke-linecap:butt;stroke-linejoin:miter;stroke-opacity:1' />
<path class='bond-28 atom-29 atom-30' d='M 242.8,139.9 L 221.9,152.0' style='fill:none;fill-rule:evenodd;stroke:#000000;stroke-width:2.0px;stroke-linecap:butt;stroke-linejoin:miter;stroke-opacity:1' />
<path class='bond-28 atom-29 atom-30' d='M 239.0,137.7 L 221.9,147.6' style='fill:none;fill-rule:evenodd;stroke:#000000;stroke-width:2.0px;stroke-linecap:butt;stroke-linejoin:miter;stroke-opacity:1' />
<path class='bond-29 atom-16 atom-31' d='M 147.5,77.6 L 139.9,54.6' style='fill:none;fill-rule:evenodd;stroke:#000000;stroke-width:2.0px;stroke-linecap:butt;stroke-linejoin:miter;stroke-opacity:1' />
<path class='bond-30 atom-31 atom-32' d='M 139.9,54.6 L 115.7,54.6' style='fill:none;fill-rule:evenodd;stroke:#000000;stroke-width:2.0px;stroke-linecap:butt;stroke-linejoin:miter;stroke-opacity:1' />
<path class='bond-30 atom-31 atom-32' d='M 137.7,50.9 L 117.9,50.9' style='fill:none;fill-rule:evenodd;stroke:#000000;stroke-width:2.0px;stroke-linecap:butt;stroke-linejoin:miter;stroke-opacity:1' />
<path class='bond-31 atom-32 atom-33' d='M 115.7,54.6 L 103.6,33.7' style='fill:none;fill-rule:evenodd;stroke:#000000;stroke-width:2.0px;stroke-linecap:butt;stroke-linejoin:miter;stroke-opacity:1' />
<path class='bond-32 atom-33 atom-34' d='M 103.6,33.7 L 115.7,12.8' style='fill:none;fill-rule:evenodd;stroke:#000000;stroke-width:2.0px;stroke-linecap:butt;stroke-linejoin:miter;stroke-opacity:1' />
<path class='bond-32 atom-33 atom-34' d='M 108.0,33.7 L 117.9,16.6' style='fill:none;fill-rule:evenodd;stroke:#000000;stroke-width:2.0px;stroke-linecap:butt;stroke-linejoin:miter;stroke-opacity:1' />
<path class='bond-33 atom-34 atom-35' d='M 115.7,12.8 L 139.9,12.8' style='fill:none;fill-rule:evenodd;stroke:#000000;stroke-width:2.0px;stroke-linecap:butt;stroke-linejoin:miter;stroke-opacity:1' />
<path class='bond-34 atom-35 atom-36' d='M 139.9,12.8 L 152.0,33.7' style='fill:none;fill-rule:evenodd;stroke:#000000;stroke-width:2.0px;stroke-linecap:butt;stroke-linejoin:miter;stroke-opacity:1' />
<path class='bond-34 atom-35 atom-36' d='M 137.7,16.6 L 147.6,33.7' style='fill:none;fill-rule:evenodd;stroke:#000000;stroke-width:2.0px;stroke-linecap:butt;stroke-linejoin:miter;stroke-opacity:1' />
<path class='bond-35 atom-1 atom-37' d='M 115.7,201.0 L 103.6,221.9' style='fill:none;fill-rule:evenodd;stroke:#000000;stroke-width:2.0px;stroke-linecap:butt;stroke-linejoin:miter;stroke-opacity:1' />
<path class='bond-36 atom-37 atom-38' d='M 103.6,221.9 L 115.7,242.8' style='fill:none;fill-rule:evenodd;stroke:#000000;stroke-width:2.0px;stroke-linecap:butt;stroke-linejoin:miter;stroke-opacity:1' />
<path class='bond-36 atom-37 atom-38' d='M 108.0,221.9 L 117.9,239.0' style='fill:none;fill-rule:evenodd;stroke:#000000;stroke-width:2.0px;stroke-linecap:butt;stroke-linejoin:miter;stroke-opacity:1' />
<path class='bond-37 atom-38 atom-39' d='M 115.7,242.8 L 139.9,242.8' style='fill:none;fill-rule:evenodd;stroke:#000000;stroke-width:2.0px;stroke-linecap:butt;stroke-linejoin:miter;stroke-opacity:1' />
<path class='bond-38 atom-39 atom-40' d='M 139.9,242.8 L 152.0,221.9' style='fill:none;fill-rule:evenodd;stroke:#000000;stroke-width:2.0px;stroke-linecap:butt;stroke-linejoin:miter;stroke-opacity:1' />
<path class='bond-38 atom-39 atom-40' d='M 137.7,239.0 L 147.6,221.9' style='fill:none;fill-rule:evenodd;stroke:#000000;stroke-width:2.0px;stroke-linecap:butt;stroke-linejoin:miter;stroke-opacity:1' />
<path class='bond-39 atom-22 atom-0' d='M 147.5,178.0 L 139.9,201.0' style='fill:none;fill-rule:evenodd;stroke:#000000;stroke-width:2.0px;stroke-linecap:butt;stroke-linejoin:miter;stroke-opacity:1' />
<path class='bond-40 atom-30 atom-25' d='M 221.9,152.0 L 201.0,139.9' style='fill:none;fill-rule:evenodd;stroke:#000000;stroke-width:2.0px;stroke-linecap:butt;stroke-linejoin:miter;stroke-opacity:1' />
<path class='bond-41 atom-36 atom-31' d='M 152.0,33.7 L 139.9,54.6' style='fill:none;fill-rule:evenodd;stroke:#000000;stroke-width:2.0px;stroke-linecap:butt;stroke-linejoin:miter;stroke-opacity:1' />
<path class='bond-42 atom-40 atom-0' d='M 152.0,221.9 L 139.9,201.0' style='fill:none;fill-rule:evenodd;stroke:#000000;stroke-width:2.0px;stroke-linecap:butt;stroke-linejoin:miter;stroke-opacity:1' />
<path class='bond-43 atom-23 atom-2' d='M 122.6,167.4 L 108.1,178.0' style='fill:none;fill-rule:evenodd;stroke:#000000;stroke-width:2.0px;stroke-linecap:butt;stroke-linejoin:miter;stroke-opacity:1' />
<path class='bond-44 atom-8 atom-4' d='M 54.6,139.9 L 77.6,147.5' style='fill:none;fill-rule:evenodd;stroke:#000000;stroke-width:2.0px;stroke-linecap:butt;stroke-linejoin:miter;stroke-opacity:1' />
<path class='bond-44 atom-8 atom-4' d='M 58.4,137.2 L 76.1,143.0' style='fill:none;fill-rule:evenodd;stroke:#000000;stroke-width:2.0px;stroke-linecap:butt;stroke-linejoin:miter;stroke-opacity:1' />
<path class='bond-45 atom-32 atom-14' d='M 115.7,54.6 L 108.1,77.6' style='fill:none;fill-rule:evenodd;stroke:#000000;stroke-width:2.0px;stroke-linecap:butt;stroke-linejoin:miter;stroke-opacity:1' />
<path class='bond-46 atom-12 atom-7' d='M 33.7,103.6 L 54.6,115.7' style='fill:none;fill-rule:evenodd;stroke:#000000;stroke-width:2.0px;stroke-linecap:butt;stroke-linejoin:miter;stroke-opacity:1' />
<path class='bond-47 atom-26 atom-18' d='M 201.0,115.7 L 178.0,108.1' style='fill:none;fill-rule:evenodd;stroke:#000000;stroke-width:2.0px;stroke-linecap:butt;stroke-linejoin:miter;stroke-opacity:1' />
<path class='bond-48 atom-23 atom-24' d='M 127.8,158.5 L 127.6,136.5' style='fill:none;fill-rule:evenodd;stroke:#000000;stroke-width:2.0px;stroke-linecap:butt;stroke-linejoin:miter;stroke-opacity:1' />
<path class='bond-49 atom-5 atom-24' d='M 97.1,127.9 L 122.3,128.3' style='fill:none;fill-rule:evenodd;stroke:#000000;stroke-width:2.0px;stroke-linecap:butt;stroke-linejoin:miter;stroke-opacity:1' />
<path class='bond-50 atom-15 atom-24' d='M 127.7,100.0 L 127.5,123.2' style='fill:none;fill-rule:evenodd;stroke:#000000;stroke-width:2.0px;stroke-linecap:butt;stroke-linejoin:miter;stroke-opacity:1' />
<path class='bond-51 atom-19 atom-24' d='M 158.5,127.9 L 132.7,128.3' style='fill:none;fill-rule:evenodd;stroke:#000000;stroke-width:2.0px;stroke-linecap:butt;stroke-linejoin:miter;stroke-opacity:1' />
<path d='M 34.8,151.4 L 33.7,152.0 L 32.7,151.4' style='fill:none;stroke:#000000;stroke-width:2.0px;stroke-linecap:butt;stroke-linejoin:miter;stroke-miterlimit:10;stroke-opacity:1;' />
<path d='M 13.8,140.5 L 12.8,139.9 L 12.8,138.7' style='fill:none;stroke:#000000;stroke-width:2.0px;stroke-linecap:butt;stroke-linejoin:miter;stroke-miterlimit:10;stroke-opacity:1;' />
<path d='M 12.8,116.9 L 12.8,115.7 L 13.8,115.1' style='fill:none;stroke:#000000;stroke-width:2.0px;stroke-linecap:butt;stroke-linejoin:miter;stroke-miterlimit:10;stroke-opacity:1;' />
<path d='M 32.7,104.2 L 33.7,103.6 L 34.8,104.2' style='fill:none;stroke:#000000;stroke-width:2.0px;stroke-linecap:butt;stroke-linejoin:miter;stroke-miterlimit:10;stroke-opacity:1;' />
<path d='M 220.8,104.2 L 221.9,103.6 L 222.9,104.2' style='fill:none;stroke:#000000;stroke-width:2.0px;stroke-linecap:butt;stroke-linejoin:miter;stroke-miterlimit:10;stroke-opacity:1;' />
<path d='M 241.8,115.1 L 242.8,115.7 L 242.8,116.9' style='fill:none;stroke:#000000;stroke-width:2.0px;stroke-linecap:butt;stroke-linejoin:miter;stroke-miterlimit:10;stroke-opacity:1;' />
<path d='M 242.8,138.7 L 242.8,139.9 L 241.8,140.5' style='fill:none;stroke:#000000;stroke-width:2.0px;stroke-linecap:butt;stroke-linejoin:miter;stroke-miterlimit:10;stroke-opacity:1;' />
<path d='M 222.9,151.4 L 221.9,152.0 L 220.8,151.4' style='fill:none;stroke:#000000;stroke-width:2.0px;stroke-linecap:butt;stroke-linejoin:miter;stroke-miterlimit:10;stroke-opacity:1;' />
<path d='M 104.2,34.8 L 103.6,33.7 L 104.2,32.7' style='fill:none;stroke:#000000;stroke-width:2.0px;stroke-linecap:butt;stroke-linejoin:miter;stroke-miterlimit:10;stroke-opacity:1;' />
<path d='M 115.1,13.8 L 115.7,12.8 L 116.9,12.8' style='fill:none;stroke:#000000;stroke-width:2.0px;stroke-linecap:butt;stroke-linejoin:miter;stroke-miterlimit:10;stroke-opacity:1;' />
<path d='M 138.7,12.8 L 139.9,12.8 L 140.5,13.8' style='fill:none;stroke:#000000;stroke-width:2.0px;stroke-linecap:butt;stroke-linejoin:miter;stroke-miterlimit:10;stroke-opacity:1;' />
<path d='M 151.4,32.7 L 152.0,33.7 L 151.4,34.8' style='fill:none;stroke:#000000;stroke-width:2.0px;stroke-linecap:butt;stroke-linejoin:miter;stroke-miterlimit:10;stroke-opacity:1;' />
<path d='M 104.2,220.8 L 103.6,221.9 L 104.2,222.9' style='fill:none;stroke:#000000;stroke-width:2.0px;stroke-linecap:butt;stroke-linejoin:miter;stroke-miterlimit:10;stroke-opacity:1;' />
<path d='M 115.1,241.8 L 115.7,242.8 L 116.9,242.8' style='fill:none;stroke:#000000;stroke-width:2.0px;stroke-linecap:butt;stroke-linejoin:miter;stroke-miterlimit:10;stroke-opacity:1;' />
<path d='M 138.7,242.8 L 139.9,242.8 L 140.5,241.8' style='fill:none;stroke:#000000;stroke-width:2.0px;stroke-linecap:butt;stroke-linejoin:miter;stroke-miterlimit:10;stroke-opacity:1;' />
<path d='M 151.4,222.9 L 152.0,221.9 L 151.4,220.8' style='fill:none;stroke:#000000;stroke-width:2.0px;stroke-linecap:butt;stroke-linejoin:miter;stroke-miterlimit:10;stroke-opacity:1;' />
<text x='80.8' y='177.7' class='atom-3' style='font-size:14px;font-style:normal;font-weight:normal;fill-opacity:1;stroke:none;font-family:sans-serif;text-anchor:start;fill:#000000' >N</text>
<text x='87.6' y='135.0' class='atom-5' style='font-size:14px;font-style:normal;font-weight:normal;fill-opacity:1;stroke:none;font-family:sans-serif;text-anchor:start;fill:#000000' >N</text>
<text x='80.8' y='92.4' class='atom-13' style='font-size:14px;font-style:normal;font-weight:normal;fill-opacity:1;stroke:none;font-family:sans-serif;text-anchor:start;fill:#000000' >N</text>
<text x='123.5' y='99.2' class='atom-15' style='font-size:14px;font-style:normal;font-weight:normal;fill-opacity:1;stroke:none;font-family:sans-serif;text-anchor:start;fill:#000000' >N</text>
<text x='166.1' y='92.4' class='atom-17' style='font-size:14px;font-style:normal;font-weight:normal;fill-opacity:1;stroke:none;font-family:sans-serif;text-anchor:start;fill:#000000' >N</text>
<text x='159.3' y='135.0' class='atom-19' style='font-size:14px;font-style:normal;font-weight:normal;fill-opacity:1;stroke:none;font-family:sans-serif;text-anchor:start;fill:#000000' >N</text>
<text x='166.1' y='177.7' class='atom-21' style='font-size:14px;font-style:normal;font-weight:normal;fill-opacity:1;stroke:none;font-family:sans-serif;text-anchor:start;fill:#000000' >N</text>
<text x='123.5' y='170.9' class='atom-23' style='font-size:14px;font-style:normal;font-weight:normal;fill-opacity:1;stroke:none;font-family:sans-serif;text-anchor:start;fill:#000000' >N</text>
<text x='123.2' y='135.6' class='atom-24' style='font-size:14px;font-style:normal;font-weight:normal;fill-opacity:1;stroke:none;font-family:sans-serif;text-anchor:start;fill:#000000' ></text>
</svg>
